X: 17
T: Bean and the boys
T: (Lover come back to me)
M: 4/4
L: 1/8
C: Coleman Hawkins
Z: Barry Harris - "Magnificent!"
Q: 1/4=270
%%staves (chords melody)
K: Ab
%%text (up)
%%vskip 20
% A %%%%%%%%%%%%%%%%%%%%%%%%%%%%%%%%%%%%
P: A
"Ab6"zEAB cd2e- | e2_f=d e2d=B | "Gm7b5"cGz2 z2F^D | "C7"=Ecz6 |
"Fm7"zCFG AB2c- | c2d=B c2BG | "Bb7"AFz2 z2E^C | "Bdim7"=DAz2 z3E- |
"Ab/C"E2_F=D E__BGA- | "Bdim7"A2__BG A_B=Bc | "Bbm7"d=BcG- G2BG | "Bdim7"A=Dz6 |
"Ab6"zEAc Bcde | "Gb7"_gdz2 zed=B |[1 "Ab6"cAFE A2"B7"A2- | A2"Bb7"F2"A7"_F3E :|[2 "Ab6"cAFE A2z2 | "Gm7b5"z4"C7"z4 ||
% B %%%%%%%%%%%%%%%%%%%%%%%%%%%%%%%%%%%%
P: B
"Fm6"x4 x4 | x4 x4 | "Bbm7"x4 x4 | "Fm6"x4 x4 |
"Gm7b5"x4 x4 | x4 x4 | "C7"x4 x4 | x4 x4 |
"Fm6"x4 x4 | x4 x4 | "Bbm7"x4 x4 | "Fm6"x4 x4 |
"Bb5"x4 x4 | x4 x4 | "Bbm7"x4 x4 | "Eb7"x4 x4 |
% A %%%%%%%%%%%%%%%%%%%%%%%%%%%%%%%%%%%%
P: A
"Ab6"zEAB cd2e- | e2_f=d e2d=B | "Gm7b5"cGz2 z2F^D | "C7"=Ecz6 |
"Fm7"zCFG AB2c- | c2d=B c2z2 | "Cm7b5"z2(3cd=d e_dcB | "F7"=Ace_g- g=ef2 |
"Bbm"zFBd "(F7)"ec=AF | "Bbm"dFBc "(F7)"defa | "Bbm7"zf3e2__e2 | "Eb7"d2FA Bc3 |
"Ab6"EFA2 A2A2 | "Gb7"A2A2 e2z=d | "B7"z=d=B_d "Bb7"zd_Bc | "A7"zc__B6 |]
